src/images/bg/bg-down-tablet.svg

<svg width="768" height="1260" viewBox="0 0 768 1260" fill="none" xmlns="http://www.w3.org/2000/svg">
<path d="M37.5877 228.336C45.7506 274.599 14.9128 270.858 -1.52642 263.204V831.288C-1.52641 942.304 -9.34196 1226.29 -1.52645 1257.56C3.21683 1276.54 44.3901 1178.82 37.5876 1157.56C30.7852 1136.3 17.1803 1058.56 46.941 1050.06C76.7017 1041.56 80.9531 1022 96.2586 997.333C111.564 972.671 150.678 924.197 245.912 961.615C341.147 999.034 404.069 965.017 449.135 931C538.418 863.608 689.845 931.332 731.928 989.062C754.012 1019.36 693.769 1169.12 731.928 1183.56C750.994 1190.78 768 1323.42 768 1176.35L768 218.981C767.433 225.218 763.238 235.82 750.994 228.336C714.941 209.967 729.736 153.782 741.641 127.986C748.16 103.323 750.314 45.4945 706.778 11.4775C655.577 -28.529 504.91 48.8965 417.505 48.8964C322.011 48.8962 275.673 26.7853 218.703 6.37503C161.732 -14.0352 116.666 20.8323 98.8095 48.8963C80.9531 76.9604 80.1029 88.0159 52.8932 100.772C-0.676083 120.332 27.384 170.507 37.5877 228.336Z" fill="#FEF3E4"/>
</svg>

<svg xmlns="http://www.w3.org/2000/svg" width="768" height="1260" fill="none"><path d="M37.588 228.336c8.163 46.263-22.675 42.522-39.114 34.868v568.084c0 111.016-7.816 395.002 0 426.272 4.743 18.98 45.916-78.74 39.114-100-6.803-21.26-20.408-99 9.353-107.5 29.76-8.5 34.012-28.06 49.318-52.727 15.305-24.662 54.419-73.136 149.653-35.718 95.235 37.419 158.157 3.402 203.223-30.615 89.283-67.392 240.71.332 282.793 58.062 22.084 30.298-38.159 180.058 0 194.498 19.066 7.22 36.072 139.86 36.072-7.21V218.981c-.567 6.237-4.762 16.839-17.006 9.355-36.053-18.369-21.258-74.554-9.353-100.35 6.519-24.663 8.673-82.492-34.863-116.508C655.577-28.53 504.91 48.897 417.505 48.896c-95.494 0-141.832-22.11-198.802-42.521-56.971-20.41-102.037 14.457-119.894 42.521-17.856 28.064-18.706 39.12-45.916 51.876-53.57 19.56-25.509 69.735-15.305 127.564z" fill="#FEF3E4"/></svg>
